icons/d.svg

<svg width="48" height="48" viewBox="0 0 48 48" fill="none" xmlns="http://www.w3.org/2000/svg">
<path fill-rule="evenodd" clip-rule="evenodd" d="M11 12C11 10.3431 12.3431 9 14 9H22C30.2843 9 37 15.7157 37 24C37 32.2843 30.2843 39 22 39H14C12.3431 39 11 37.6569 11 36V12ZM14 11C13.4477 11 13 11.4477 13 12V36C13 36.5523 13.4477 37 14 37H22C29.1797 37 35 31.1797 35 24C35 16.8203 29.1797 11 22 11H14ZM15 14C15 13.4477 15.4477 13 16 13H22C28.0751 13 33 17.9249 33 24C33 30.0751 28.0751 35 22 35H16C15.4477 35 15 34.5523 15 34V14ZM17 15V33H22C26.9706 33 31 28.9706 31 24C31 19.0294 26.9706 15 22 15H17Z" fill="black"/>
</svg>

<svg
  xmlns="http://www.w3.org/2000/svg"
  width="24"
  height="24"
  viewBox="0 0 24 24"
  fill="none"
  stroke="currentColor"
  stroke-width="2"
  stroke-linecap="round"
  stroke-linejoin="round"
>
  <path
    fill-rule="evenodd"
    d="M11 12a3 3 0 0 1 3-3h8c8.284 0 15 6.716 15 15s-6.716 15-15 15h-8a3 3 0 0 1-3-3zm3-1a1 1 0 0 0-1 1v24a1 1 0 0 0 1 1h8c7.18 0 13-5.82 13-13s-5.82-13-13-13zm1 3a1 1 0 0 1 1-1h6c6.075 0 11 4.925 11 11s-4.925 11-11 11h-6a1 1 0 0 1-1-1zm2 1v18h5a9 9 0 1 0 0-18z"
    clip-rule="evenodd"
  />
</svg>
